shader_type canvas_item;
uniform vec4 provColour=vec4(0.0,0.0,0.0,1.0);
void vertex() {
	// Called for every vertex the material is visible on.
}

void fragment() {
	//texture(TEXTURE,vec2(0.0,0.0));
	
	
}

void light() {
	// Called for every pixel for every light affecting the CanvasItem.
}
